X:1
T:Donne non mi credete
T:Benedetto Ferrari
T:Source : Musiche Varie a voce sola---Libro terzo---Venetia---B.Magni---1641. Editor : André Vierendeels (15/01/17). 
T:Notes : Original clefs : C4, F4 Editorial accidentals above the staff Original note values have been halved Figures in BC are notated in original print
T:Donne non mi credete
T:©
T:©
T:©
T:©
C:Benedetto Ferrari
Z:©
%%score 1 2
L:1/8
Q:1/4=121
M:6/4
K:F
V:1 treble-8 nm="Tenor" snm="T"
V:2 bass nm="MusicXML Part"
V:1
 c2 ABcd B3 A G2 | z2 cB AG A2 fe dc | d4 dc B3 A G2 | z2 z2 cB A2 A2 =B2 | c12- | c12 | %6
w: Don- ne non mi cre- de- te, _|se _ ral _ lor, se _ tal- *|lor mi ve- de- te, _|per a- mor spa- si|mar,|_|
w: O quann- to v'in- gan- na- te, _|s'a- * man- * te, s'a- * man- *|te mi pensa- * te, _|per- ch'io vi- va'in do-|lor,|_|
 d6- d2 z agf | e4 d2 d3 efe | d6- d3 e fe | d6- d2 z efg | e4 d2 d4 cd | B4 cB A2 z2 z2 :: %12
w: * * io lo so|per bur- lar, _ _ _|_ _ _ _ _|* * io lo so|per bir- lar, io lo|so per bur- lar,|
w: * * e pian- ga|qua- si'o- gnor, _ _ _|_ _ _ _ _|* * e pian- ga|qua- si'o- gnor, e pian-|ga qua- si'o- gnor,|
 z2 z2 f2 _e3 def | d2 d2 c2 dc dc d_e | d2 z2 d_e c4 dc | c4 B2 B4 A2 | GA Bc de fd ef gf | %17
w: cre- de- te- lo ch'io|giu- ro in ve- * ri- * * *|tà il piu fur- bo di|me A- mor non|hà- * * * * * A- * * * * *|
w: ho sa- le'in zuc- ca,|e se ben sto- * * * co- *|si chi'io non ri- da di|voi non è mai|di, _ _ _ _ _ non _ _ _ _ _|
 ed ed ef d2 z2 z2 | z6 z2 c3 c | B4 BA Gc de fe | dF GA BA G4 F2 |[M:3/4]"^#" F2 z2 z2 :| %22
w: mor _ non- * * * hà,|il piu|fur- bo di me A- * * * *|* * * * * * mor non|hà.|
w: è _ mai _ _ _ di.|ch'io non|ri- da _ di voi _ _ _ _|_ non _ _ _ _ è mai|di.|
V:2
"^BC" F,6 B,,6 |"^5""^6""^4 2" C,6 F,2 A,4 |"^(-natural)" B,2 ^F,4 G,4- G,F, | E,6 F,6 | %4
"^5 6""^#" E,2 _E,4 D,6 | C,2 =B,,2 _B,,2 A,,4 G,,2 |"^6""^6""^5" F,,6 G,,6 |"^4""^#" A,,6 D,6- | %8
 D,3 E, F,G, A,6- | A,3 B, CA, B,2 G,4 |"^4""^#" A,2 A,,4 D,2 A,,4 | B,,2 C,4 F,2 F,,2 z2 :: %12
 F,6 G,4 A,2 |"^4 3" B,2 _E,4 F,6 |"^#6" B,2 B,,4 A,,6 | G,,2 C,4 D,6 | G,6 D,4 G,,2 | %17
 A,,6 D,_E, F,G, A,F, |"^6" B,A, B,G, A,A,, D,2 A,,4 |"^7 6" G,,6 F,,6 |"^5""^6" B,,6 C,6 | %21
[M:3/4] F,2 F,,2 z2 :| %22

